X: 0129
T: Largo Law - 8x32S
P: Largo Law
C: traditional
B: Miss Milligan's Miscellany v.1 #129
B: Originally Ours v.1 p.176 #MMM-0129
Z: 2020 John Chambers <jc:trillian.mit.edu>
N: The bar-count numbers at left edge make it clear that the form is ABAB, and the the alternate endings
N: are misleading.  The last notes should be attached to the next phrase instead, for only two staves.
M: 4/4
L: 1/16
R: strathspey
K: A
%
c2 |:\
"A"Ac3 E3F "E/A"A3B c3e | "D"fa3 "E/A"e3c "E7"BBB2 B3c |\
"A"Ac3 E3F "E/A"A3B c3e |1 "D"fefg "A"a2c2 "A"AAA2 A2c2 :|2 "D"fefg "E/A"a2c2 "A"AAA2 A2e2 ||
"A"a3e f3c "E/A"eee2 a3e | "D"fa3 "A"e3c "E7"BBB2 B3g |\
"A"a3e f3c "E/A"eee2 a3e | "D"fa3 "A"e3c "A"AAA2 A2e2 |
"A"a3e f3c "E/A"eee2 a3e | "D"fa3 "A"e3c "E7"BBB2 B3c |\
"A"ce3 E3F "E/A"A3B c3e |1 "D"fefg "A"a2c2 "A"AAA2 A2c2 :|2 "D"fefg "E/A"e2c2 "A"AAA2 A2 |]
